X:1
T:G Major Oliver Holden, 1800
T:Isaac Watts, 1709 (Hymn 10, Book 3) 88. 88. (L. M.)
T:The Cross No copyright. Transcribed from The Modern Collection, 1800.
%%score [ 1 2 3 4 ]
L:1/8
M:4/4
K:G
V:1 treble nm="Treble" snm="Tr."
V:2 treble nm="Counter" snm="C."
V:3 treble-8 nm="Tenor" snm="T."
V:4 bass nm="Bass" snm="B."
V:1
 (G3 A) B2 A2 | B2 d2 B2 B2 | !fermata!B4 G4 | G2 F2 G2 B2 | B2 A2 G2 F2 | G8 | B4 A2 d2 | %7
w: |||||||
 (A2 F2) (D2 G2) | (B2 A2) (A2 G2) | G4 F4 | A4 F2 A2 | (d2 c2) (B2 A2) | G4 A4 | B8 | z8 | z8 | %16
w: |||||||||
 z8 | z8 | z8 | z8 | B4 A2 B2 | c3 d c2 B2 | B2 c2 d3 e | d2 c2 B2 A2 | B8 | z4 B4 | B2 G2 A2 A2 | %27
w: ||||With an- gels|join to praise the|Lamb, And wor- ship|at His Fath- er's|throne.|||
 GF GA B2 B2 | c2 A2 A2 B2 | c2 c2 B2 A2 | GF GA B2 A2 | G4 A4 | B8 |] %33
w: ||||||
V:2
 D4 D2 D2 | G2 G2 G2 F2 | !fermata!E4 E4 | D2 D2 D2 G2 | D4 D4 | D8 | D4 D2 D2 | D4 G4 | %8
w: O the sweet|won- ders of that|cross, Where|God the Sav- ior|loved and|died;|Her nob- lest|life my|
 (G2 F2) (F2 G2) | D8 | D4 D2 F2 | (G2 F2) (G2 A2) | (B2 G2) F4 | G8 | z8 | z8 | z8 | z8 | z8 | %19
w: spi- * rit *|draws|From His dear|wounds * and *|bleed- * ing|side.||||||
 z8 | z8 | z8 | z8 | z8 | z8 | z4 G4 | G2 A2 F2 F2 | G2 D2 G2 G2 | G2 G2 F2 F2 | G2 G2 G2 E2 | %30
w: ||||||With|an- gels join to|praise the Lamb, and|wor- ship at His|Fath- er's throne, And|
 D2 D2 G2 G2 | G4 F4 | G8 |] %33
w: wor- ship at His|Fath- er's|throne.|
V:3
 (B3 A) G2 D2 | G2 B2 G2 F2 | !fermata!E4 c4 | B2 A2 B2 d2 | (G2 F2) (G2 A2) | B8 | G4 F2 A2 | %7
w: |||||||
 (F2 D2) (d3 e) | (d2 c2) (c2 B2) | B4 A4 | (D2 F2) (A2 d2) | (B2 A2) (G2 c2) | B4 A4 | G8 | %14
w: |||||||
 z4 (A3 B) | A2 G2 A2 c2 | B2 A2 B2 c2 | d3 e d2 c2 | B4 (^c2 de) | d8 | z8 | z8 | z8 | z8 | z8 | %25
w: I *|would for- ev- er|speak His name, In|sounds to mor- tal|ears un- * *|known,||||||
 z4 d4 | e2 d^c d2 c2 | BA Bc d2 d2 | e2 d^c d2 d2 | ed eg d2 c2 | BA Bc d2 c2 | B4 A4 | G8 |] %33
w: ||||||||
V:4
 G,4 G,2 A,2 | B,2 B,2 B,,2 B,,2 | !fermata!E,4 E,4 | G,2 D,2 G,2 G,2 | D,4 D,4 | G,8 | %6
w: ||||||
 G,4 D,2 D,2 | D,4 G,4 | D,4 D,4 | D,8 | D,4 D,2 D,2 | D,4 D,4 | D,4 D,4 | G,,8 | z4 D,4 | %15
w: |||||||||
 D,2 D,2 D,2 D,2 | G,2 D,2 G,2 A,2 | B,3 C B,2 A,2 | G,4 A,4 | D,8 | G,4 F,2 G,2 | A,3 B, A,2 G,2 | %22
w: |||||With an- gels|join to praise the|
 G,2 A,2 B,3 C | B,2 A,2 G,2 D,2 | G,8 | z4 G,4 | G,2 A,2 D,2 D,2 | G,2 G,2 G,2 G,2 | %28
w: Lamb, And wor- ship|at His Fath- er's|throne.||||
 G,2 A,2 D,2 D,2 | C,2 C,2 B,,2 C,2 | D,2 C,2 B,,2 C,2 | D,4 D,4 | G,,8 |] %33
w: |||||

